!! 00000] TT[00
!!!OTL: Xiao kanxi
!!!ARE: Asia, China,Heilongjiang, Jilin, Liaoning
!! Ethnic Group: Han
!! Zhongguo Minge Xuan, S. 191
!!!SCT: C1156
!!!YEM: Copyright 1995, estate of Helmut Schaffrath.
**kern
*ICvox
*Ivox
*M2/4
*k[f#c#]
*D:
{8dd
8ee
8dd
8b
=1
16b
16f#
4a
8a
=2
8f#
16f#
16a
8e
8f#
=3
4a
4r}
=4
{8a
8f#
8a
16a
16b
=5
8dd
8dd
8b
8a
=6
16f#
16a
16f#
16a
16b
16a
16b
16dd
=7
4a
8dd
8f#}
=8
{8.e
16f#
8a
8a
=9
8dd
8dd
8f#
8e
=10
8d
4d
8e
=11
2d}
=12
{8f#
8a
8f#
8a
=13
8dd
8dd
8dd
8dd
=14
8b
8ee
8cc#
8b
=15
4a
8b
8f#}
=16
{8.e
16f#
8a
8a
=17
8dd
8dd
8f#
8e
=18
8d
4d
8e
=19
2d}
==
!!!AGN: Tanzlied, Xiaodiao
!! Vor-und Nachspiel, glissandi ausgelassen.
!!!ONB: ESAC (Essen Associative Code) Database: CHINA_025
!!!AMT: simple duple
!!!AIN: vox
!!!EED: Helmut Schaffrath
!!!EEV: 1.0
*-
